packages/sights/assets/overlays/Pzgw0WGe.svg

<svg width="500" height="375" viewBox="0 0 500 375" fill="none" xmlns="http://www.w3.org/2000/svg">
<path d="M492.951 90.1145C492.951 90.1145 475.221 87.5245 469.101 86.9045L377.231 28.5145L363.931 22.5145C363.931 22.5145 278.631 4.16442 163.071 13.7945C163.071 13.7945 72.8709 23.1245 62.4809 29.8545L59.1208 34.4345C59.1208 34.4345 57.2809 44.2245 57.5909 45.1345C57.9009 46.0445 28.2408 79.6845 28.2408 79.6845C28.2408 79.6845 7.69086 92.2645 7.69086 93.1745C7.69086 94.0845 6.00085 97.8745 6.00085 97.8745L9.21085 119.654L8.52185 137.764L15.6909 173.124L23.0309 185.814L29.7719 192.654" stroke="white" stroke-miterlimit="10"/>
<path d="M29.5409 193.154C23.5409 173.774 24.8109 157.474 34.0009 152.154C47.0909 144.594 71.4109 162.214 88.3209 191.504C94.2449 201.562 98.6718 212.43 101.461 223.764L113.541 235.454L424.931 353.454C424.931 353.454 433.641 303.454 494.631 291.544" stroke="white" stroke-miterlimit="10"/>
<path d="M377.231 28.5146C377.231 28.5146 323.881 33.5146 317.771 37.8347C317.771 37.8347 444.951 128.034 458.401 146.684L486.841 152.794H493.691" stroke="white" stroke-miterlimit="10"/>
<path d="M469.101 86.9043C469.101 86.9043 492.691 103.874 494.631 106.654" stroke="white" stroke-miterlimit="10"/>
<path d="M451.561 311.064C451.561 311.064 444.951 321.064 444.951 327.824L443.271 364.404" stroke="white" stroke-miterlimit="10"/>
<path d="M43.7818 219.436C33.1838 199.37 32.5348 178.908 42.3308 173.734C52.1278 168.56 68.6608 180.633 79.2588 200.7C89.8568 220.767 90.5058 241.228 80.7098 246.402C70.9128 251.576 54.3798 239.503 43.7818 219.436Z" stroke="white" stroke-miterlimit="10"/>
<path d="M57.6205 156.574L39.5506 161.354L35.1205 165.024C35.1205 165.024 21.2106 188.874 41.6906 222.194C41.6906 222.194 53.3106 246.344 79.3006 255.524H88.4706L114.761 239.924L116.311 236.504" stroke="white" stroke-miterlimit="10"/>
<path d="M14.8905 88.0645L19.9805 95.4644V101.864L12.1905 117.944L9.21045 119.664" stroke="white" stroke-miterlimit="10"/>
<path d="M494.631 277.994C494.631 277.994 447.631 278.714 422.631 321.554C422.631 321.554 109.871 215.554 102.991 206.044C102.991 206.044 87.8609 152.184 40.4709 141.784C40.4709 141.784 9.28087 137.944 19.9809 180.524" stroke="white" stroke-miterlimit="10"/>
<path d="M325.262 145.455C325.262 145.455 340.332 144.535 389.772 147.135C392.672 147.295 430.772 152.795 430.772 152.795C431.392 153.105 433.832 164.265 433.832 164.265C419.248 160.04 404.211 157.575 389.042 156.925C363.042 159.925 330.952 156.925 330.952 156.925L326.672 151.415C325.302 148.055 325.302 132.925 325.302 132.925C328.352 128.925 347.772 114.925 353.122 112.435C358.472 109.945 364.582 111.525 364.582 111.525L395.692 129.255V133.255L386.822 147.015" stroke="white" stroke-miterlimit="10"/>
<path d="M430.691 152.794C430.691 152.794 328.161 49.6545 284.591 38.1445C284.591 38.1445 220.851 18.4245 104.371 28.5145C104.371 28.5145 68.3709 75.5145 65.6109 85.6145L325.461 141.654" stroke="white" stroke-miterlimit="10"/>
<path d="M191.392 26.0244L190.012 31.8444L187.862 111.994L185.692 120.384L183.242 144.994L192.722 243.294V261.024L196.182 266.764" stroke="white" stroke-miterlimit="10"/>
<path d="M222.691 161.654C222.351 161.604 221.781 163.834 216.391 164.064L200.911 160.734V158.654L203.691 155.774C203.691 155.774 192.341 154.054 192.341 154.624C192.149 155.516 191.811 156.371 191.341 157.154C191.226 158.565 191.226 159.983 191.341 161.394C191.341 161.394 205.101 171.944 230.661 172.284L232.691 170.454C232.691 170.454 236.101 163.574 222.691 161.654Z" stroke="white" stroke-miterlimit="10"/>
<path d="M64.0103 120.004C64.1503 120.164 60.9103 122.924 60.9103 122.924V124.194L69.4503 125.854C69.7403 125.904 72.1503 126.134 75.5303 123.554C76.8163 123.654 78.0653 124.029 79.1943 124.653C80.3223 125.278 81.3033 126.137 82.0703 127.174V131.064L80.9203 131.874C80.9203 131.874 62.8003 131.184 58.1003 127.284L55.5203 124.284V121.934C55.5203 121.934 56.8403 119.124 57.3603 119.304C57.8803 119.484 61.4303 117.084 64.0103 120.004Z" stroke="white" stroke-miterlimit="10"/>
<path d="M104.371 28.5146C104.371 28.5146 72.2611 34.2446 65.6111 40.2046L57.6111 45.2046" stroke="white" stroke-miterlimit="10"/>
</svg>

<svg width="500" height="375" fill="none" xmlns="http://www.w3.org/2000/svg"><path d="M492.951 90.115s-17.73-2.59-23.85-3.21l-91.87-58.39-13.3-6s-85.3-18.35-200.86-8.72c0 0-90.2 9.33-100.59 16.06l-3.36 4.58s-1.84 9.79-1.53 10.7c.31.91-29.35 34.55-29.35 34.55S7.69 92.264 7.69 93.174c0 .91-1.69 4.7-1.69 4.7l3.21 21.779-.69 18.11 7.17 35.36 7.34 12.69 6.74 6.84" stroke="#fff" stroke-miterlimit="10"/><path d="M29.54 193.154c-6-19.38-4.73-35.68 4.46-41 13.09-7.56 37.41 10.06 54.32 39.35a120.136 120.136 0 0 1 13.141 32.26l12.08 11.69 311.39 118s8.71-50 69.7-61.91M377.231 28.515s-53.35 5-59.46 9.32c0 0 127.18 90.199 140.63 108.849l28.44 6.11h6.85M469.101 86.904s23.59 16.97 25.53 19.75" stroke="#fff" stroke-miterlimit="10"/><path d="M451.561 311.064s-6.61 10-6.61 16.76l-1.68 36.58M43.782 219.436c-10.598-20.066-11.247-40.528-1.451-45.702 9.797-5.174 26.33 6.899 36.928 26.966 10.598 20.067 11.247 40.528 1.45 45.702-9.796 5.174-26.33-6.899-36.927-26.966Z" stroke="#fff" stroke-miterlimit="10"/><path d="m57.62 156.574-18.07 4.78-4.43 3.67s-13.91 23.85 6.57 57.17c0 0 11.62 24.15 37.61 33.33h9.17l26.291-15.6 1.55-3.42M14.89 88.064l5.09 7.4v6.4l-7.79 16.08-2.98 1.72" stroke="#fff" stroke-miterlimit="10"/><path d="M494.631 277.994s-47 .72-72 43.56c0 0-312.76-106-319.64-115.51 0 0-15.13-53.86-62.52-64.26 0 0-31.19-3.84-20.49 38.74M325.262 145.455s15.07-.92 64.51 1.68c2.9.16 41 5.66 41 5.66.62.31 3.06 11.47 3.06 11.47a190.235 190.235 0 0 0-44.79-7.34c-26 3-58.09 0-58.09 0l-4.28-5.51c-1.37-3.36-1.37-18.49-1.37-18.49 3.05-4 22.47-18 27.82-20.49 5.35-2.49 11.46-.91 11.46-.91l31.11 17.73v4l-8.87 13.76" stroke="#fff" stroke-miterlimit="10"/><path d="M430.691 152.794s-102.53-103.14-146.1-114.65c0 0-63.74-19.72-180.22-9.63 0 0-36 47-38.76 57.1l259.85 56.04" stroke="#fff" stroke-miterlimit="10"/><path d="m191.392 26.024-1.38 5.82-2.15 80.15-2.17 8.39-2.45 24.61 9.48 98.3v17.73l3.46 5.74" stroke="#fff" stroke-miterlimit="10"/><path d="M222.691 161.654c-.34-.05-.91 2.18-6.3 2.41l-15.48-3.33v-2.08l2.78-2.88s-11.35-1.72-11.35-1.15a8.318 8.318 0 0 1-1 2.53 26.098 26.098 0 0 0 0 4.24s13.76 10.55 39.32 10.89l2.03-1.83s3.41-6.88-10-8.8ZM64.01 120.004c.14.16-3.1 2.92-3.1 2.92v1.27l8.54 1.66c.29.05 2.7.28 6.08-2.3a9.003 9.003 0 0 1 6.54 3.62v3.89l-1.15.81s-18.12-.69-22.82-4.59l-2.58-3v-2.35s1.32-2.81 1.84-2.63c.52.18 4.07-2.22 6.65.7ZM104.371 28.515s-32.11 5.73-38.76 11.69l-8 5" stroke="#fff" stroke-miterlimit="10"/></svg>
